scalable/actions/format-text-direction-rtl.svg

<?xml version="1.0" encoding="UTF-8" standalone="no"?>
<svg
   xmlns:dc="http://purl.org/dc/elements/1.1/"
   xmlns:cc="http://creativecommons.org/ns#"
   xmlns:rdf="http://www.w3.org/1999/02/22-rdf-syntax-ns#"
   xmlns:svg="http://www.w3.org/2000/svg"
   xmlns="http://www.w3.org/2000/svg"
   xmlns:sodipodi="http://sodipodi.sourceforge.net/DTD/sodipodi-0.dtd"
   xmlns:inkscape="http://www.inkscape.org/namespaces/inkscape"
   viewBox="0 0 24 24"
   version="1.1"
   id="svg4"
   sodipodi:docname="format-text-direction-rtl.svg"
   inkscape:version="0.92.3 (2405546, 2018-03-11)"
   width="24"
   height="24"
   style="fill:#000000">
  <metadata
     id="metadata10">
    <rdf:RDF>
      <cc:Work
         rdf:about="">
        <dc:format>image/svg+xml</dc:format>
        <dc:type
           rdf:resource="http://purl.org/dc/dcmitype/StillImage" />
        <dc:title></dc:title>
      </cc:Work>
    </rdf:RDF>
  </metadata>
  <defs
     id="defs8" />
  <sodipodi:namedview
     pagecolor="#ffffff"
     bordercolor="#666666"
     borderopacity="1"
     objecttolerance="10"
     gridtolerance="10"
     guidetolerance="10"
     inkscape:pageopacity="0"
     inkscape:pageshadow="2"
     inkscape:window-width="1366"
     inkscape:window-height="717"
     id="namedview6"
     showgrid="false"
     inkscape:zoom="15.909903"
     inkscape:cx="12"
     inkscape:cy="11.089655"
     inkscape:window-x="0"
     inkscape:window-y="25"
     inkscape:window-maximized="1"
     inkscape:current-layer="svg4" />
  <path
     style="fill:#333333;stroke-width:0.54999989"
     d="M 9.1328125 1.6503906 C 6.7018125 1.6503906 4.7324219 3.6197812 4.7324219 6.0507812 C 4.7324219 8.4817813 6.7018125 10.449219 9.1328125 10.449219 L 9.1328125 15.949219 L 11.333984 15.949219 L 11.333984 3.8496094 L 13.533203 3.8496094 L 13.533203 15.949219 L 15.732422 15.949219 L 15.732422 3.8496094 L 17.933594 3.8496094 L 17.933594 1.6503906 L 9.1328125 1.6503906 z M 7.1992188 14.400391 L 2.8007812 18.800781 L 7.1992188 23.199219 L 7.1992188 19.900391 L 20.400391 19.900391 L 20.400391 17.699219 L 7.1992188 17.699219 L 7.1992188 14.400391 z "
     id="path878" />
</svg>

<svg xmlns="http://www.w3.org/2000/svg" viewBox="0 0 24 24">
  <path fill="#333" d="M9.1328 1.6504c-2.431 0-4.4004 1.9694-4.4004 4.4004s1.9694 4.3984 4.4004 4.3984v5.5h2.2012v-12.1h2.1992v12.1h2.1992v-12.1h2.2012V1.65H9.1328zm-1.9336 12.75l-4.3984 4.4004 4.3984 4.3984v-3.2988h13.201v-2.2012H7.1992v-3.2988z"/>
</svg>
